static/fa/svgs/solid/jug-detergent.svg

<svg xmlns="http://www.w3.org/2000/svg" viewBox="0 0 384 512"><!--! Font Awesome Free 6.1.1 by @fontawesome - https://fontawesome.com License - https://fontawesome.com/license/free (Icons: CC BY 4.0, Fonts: SIL OFL 1.1, Code: MIT License) Copyright 2022 Fonticons, Inc.--><path d="M96 24c0-13.25 10.7-24 24-24h80c13.3 0 24 10.75 24 24v24h8c13.3 0 24 10.75 24 24s-10.7 24-24 24H88c-13.25 0-24-10.75-24-24s10.75-24 24-24h8V24zM0 256c0-70.7 57.31-128 128-128h128c70.7 0 128 57.3 128 128v192c0 35.3-28.7 64-64 64H64c-35.35 0-64-28.7-64-64V256zm256 96c0 17.7 14.3 32 32 32s32-14.3 32-32v-96c0-17.7-14.3-32-32-32s-32 14.3-32 32v96z"/></svg>

<svg xmlns="http://www.w3.org/2000/svg" viewBox="0 0 384 512"><!--! Font Awesome Free 6.1.1 by @fontawesome - https://fontawesome.com License - https://fontawesome.com/license/free (Icons: CC BY 4.0, Fonts: SIL OFL 1.1, Code: MIT License) Copyright 2022 Fonticons, Inc. --><path d="M96 24C96 10.75 106.7 0 120 0H200C213.3 0 224 10.75 224 24V48H232C245.3 48 256 58.75 256 72C256 85.25 245.3 96 232 96H88C74.75 96 64 85.25 64 72C64 58.75 74.75 48 88 48H96V24zM0 256C0 185.3 57.31 128 128 128H256C326.7 128 384 185.3 384 256V448C384 483.3 355.3 512 320 512H64C28.65 512 0 483.3 0 448V256zM256 352C256 369.7 270.3 384 288 384C305.7 384 320 369.7 320 352V256C320 238.3 305.7 224 288 224C270.3 224 256 238.3 256 256V352z"/></svg>
